src/categories-icons-sprite/categories/svg-cat-garden-seeds.svg

<svg width="29" height="30" viewBox="0 0 29 30" fill="none" xmlns="http://www.w3.org/2000/svg">
<path class="p-B04617" d="M14.1944 21.2929C13.7052 21.2929 13.3086 20.8962 13.3086 20.4071V11.1065C13.3086 10.6171 13.7052 10.2205 14.1944 10.2205C14.6837 10.2205 15.0804 10.6171 15.0804 11.1065V20.4071C15.0804 20.8964 14.6837 21.2929 14.1944 21.2929Z" fill="#58ADE5"/>
<path class="p-BDF052" d="M25.238 0.842749C25.2117 0.394369 24.8539 0.0366265 24.4056 0.010305C24.192 -0.00205459 19.1461 -0.26092 16.0971 2.78825C15.1958 3.68958 14.5838 4.76533 14.1686 5.83924C13.7536 4.76533 13.1414 3.68958 12.24 2.78825C9.19109 -0.26092 4.14493 -0.00205459 3.93162 0.010305C3.48324 0.0366265 3.12549 0.394369 3.09917 0.842749C3.08681 1.05607 2.82795 6.10223 5.87711 9.15116C8.43693 11.711 12.4041 11.9394 13.7376 11.9394H14.5996C15.9333 11.9394 19.9005 11.7107 22.4601 9.15116C25.5092 6.10223 25.2506 1.05607 25.238 0.842749Z" fill="#65B3E7"/>
<path class="p-83360B" d="M27.5047 29.9999H0.885776C0.586856 29.9999 0.308078 29.8491 0.144427 29.5989C-0.0192233 29.3487 -0.0455447 29.0329 0.0743894 28.7591C2.52938 23.1474 8.07221 19.5212 14.1953 19.5212C20.3183 19.5212 25.8611 23.1474 28.3164 28.7591C28.4361 29.0329 28.4097 29.3487 28.2461 29.5989C28.0824 29.8491 27.8037 29.9999 27.5047 29.9999Z" fill="#B9DFFC"/>
<path class="p-4C1A03" d="M14.195 19.5212C14.1861 19.5212 14.1769 19.5215 14.168 19.5215V29.9999H27.5045C27.8034 29.9999 28.0822 29.8491 28.2458 29.5989C28.4095 29.3487 28.4358 29.0329 28.3161 28.7591C25.8609 23.1474 20.318 19.5212 14.195 19.5212Z" fill="#A1D1FD"/>
<path class="p-63C92F" d="M24.4049 0.010305C24.1914 -0.00205459 19.1455 -0.26092 16.0965 2.78825C15.1952 3.68958 14.5832 4.76533 14.168 5.83924V11.9394H14.599C15.9329 11.9394 19.9001 11.7107 22.4597 9.15116C25.5086 6.10223 25.25 1.05607 25.2374 0.842749C25.2111 0.394369 24.8533 0.0366265 24.4049 0.010305Z" fill="#4D98CB"/>
<path class="p-4C1A03" d="M6.22344 27.9625C6.6867 27.9625 7.13073 27.5551 7.10921 27.0767C7.0877 26.5967 6.71988 26.1909 6.22344 26.1909C5.76018 26.1909 5.31615 26.5983 5.33767 27.0767C5.35918 27.5567 5.72676 27.9625 6.22344 27.9625Z" fill="#4D98CB"/>
<path class="p-4C1A03" d="M9.0584 27.9625C9.52189 27.9625 9.96569 27.5551 9.94417 27.0767C9.92266 26.5967 9.55507 26.1909 9.0584 26.1909C8.59514 26.1909 8.15111 26.5983 8.17263 27.0767C8.19414 27.5567 8.56195 27.9625 9.0584 27.9625Z" fill="#4D98CB"/>
<path class="p-4C1A03" d="M7.64043 25.8069C8.10369 25.8069 8.54772 25.3995 8.5262 24.9212C8.50469 24.4414 8.1371 24.0354 7.64043 24.0354C7.17717 24.0354 6.73314 24.4428 6.75466 24.9212C6.77617 25.4011 7.14376 25.8069 7.64043 25.8069Z" fill="#4D98CB"/>
</svg>

<svg width="29" height="30" fill="none" xmlns="http://www.w3.org/2000/svg"><path class="p-B04617" d="M14.194 21.293a.886.886 0 01-.885-.886v-9.3a.886.886 0 111.771 0v9.3c0 .49-.396.886-.886.886z" fill="#58ADE5"/><path class="p-BDF052" d="M25.238.843a.886.886 0 00-.832-.833c-.214-.012-5.26-.27-8.309 2.778-.901.902-1.513 1.977-1.928 3.051-.415-1.074-1.028-2.15-1.929-3.05C9.191-.262 4.145-.003 3.932.01a.886.886 0 00-.833.833c-.012.213-.271 5.26 2.778 8.308 2.56 2.56 6.527 2.788 7.86 2.788h.863c1.333 0 5.3-.228 7.86-2.788 3.05-3.049 2.79-8.095 2.778-8.308z" fill="#65B3E7"/><path class="p-83360B" d="M27.505 30H.885a.886.886 0 01-.81-1.24 15.414 15.414 0 0114.12-9.239 15.415 15.415 0 0114.121 9.238.886.886 0 01-.811 1.24z" fill="#B9DFFC"/><path class="p-4C1A03" d="M14.195 19.521h-.027V30h13.337a.886.886 0 00.811-1.24 15.415 15.415 0 00-14.121-9.239z" fill="#A1D1FD"/><path class="p-63C92F" d="M24.405.01c-.214-.012-5.26-.27-8.309 2.778-.9.902-1.513 1.977-1.928 3.051v6.1h.431c1.334 0 5.301-.228 7.86-2.788 3.05-3.049 2.791-8.095 2.778-8.308a.886.886 0 00-.832-.833z" fill="#4D98CB"/><path class="p-4C1A03" d="M6.223 27.962c.464 0 .908-.407.886-.885-.021-.48-.39-.886-.886-.886-.463 0-.907.407-.885.886.021.48.389.885.885.885zM9.058 27.962c.464 0 .908-.407.886-.885-.021-.48-.389-.886-.886-.886-.463 0-.907.407-.885.886.021.48.389.885.885.885zM7.64 25.807c.464 0 .908-.407.886-.886-.021-.48-.389-.886-.886-.886-.463 0-.907.408-.885.886.021.48.389.886.885.886z" fill="#4D98CB"/></svg>
